X: 34332
T: Return Of The Prodigal Zombie, The
R: hornpipe
M: 4/4
K: Gmajor
"INTRO"GdBG FdBF|EFGA FDAF|GdBG FdBF|EFGA FDA2||
|:d2Bd cB A/B/A|GABc e2d2|ecdB cBAG|ABcE GFED|
d/e/d Bd cB AF|GABc e2d2|cABG AGFE|DGGF A2G2:|
|:e2ge dega|(3bag af gfed|e2ge dBGB|ABcE B2A2|
e2ge dega|^dfba a2gf|ecdB cBAG|DGGF A2G2:|

